svgs/duotone/gauge-simple-high.svg

<svg xmlns="http://www.w3.org/2000/svg" viewBox="0 0 512 512"><!--! Font Awesome Pro 6.4.0 by @fontawesome - https://fontawesome.com License - https://fontawesome.com/license (Commercial License) Copyright 2023 Fonticons, Inc. --><defs><style>.fa-secondary{opacity:.4}</style></defs><path class="fa-primary" d="M338.7 140.9c6.1-11.8 20.6-16.3 32.4-10.2s16.3 20.6 10.2 32.4L304.7 310.4c9.6 11.2 15.3 25.7 15.3 41.6c0 35.3-28.7 64-64 64s-64-28.7-64-64s28.7-64 64-64c2.1 0 4.1 .1 6.1 .3l76.6-147.4z"/><path class="fa-secondary" d="M0 256a256 256 0 1 0 512 0A256 256 0 1 0 0 256zm192 96c0-35.3 28.7-64 64-64c2.1 0 4.1 .1 6.1 .3l76.6-147.4c6.1-11.8 20.6-16.3 32.4-10.2s16.3 20.6 10.2 32.4L304.7 310.4c9.6 11.2 15.3 25.7 15.3 41.6c0 35.3-28.7 64-64 64s-64-28.7-64-64z"/></svg>

<svg xmlns="http://www.w3.org/2000/svg" viewBox="0 0 512 512"><!--! Font Awesome Pro 6.3.0 by @fontawesome - https://fontawesome.com License - https://fontawesome.com/license (Commercial License) Copyright 2023 Fonticons, Inc. --><defs><style>.fa-secondary{opacity:.4}</style></defs><path class="fa-primary" d="M338.7 140.9C344.8 129.2 359.3 124.6 371.1 130.7C382.8 136.8 387.4 151.3 381.3 163.1L304.7 310.4C314.2 321.6 320 336.1 320 352C320 387.3 291.3 416 256 416C220.7 416 192 387.3 192 352C192 316.7 220.7 288 256 288C258.1 288 260.1 288.1 262.1 288.3L338.7 140.9z"/><path class="fa-secondary" d="M256 0C397.4 0 512 114.6 512 256C512 397.4 397.4 512 256 512C114.6 512 0 397.4 0 256C0 114.6 114.6 0 256 0zM192 352C192 387.3 220.7 416 256 416C291.3 416 320 387.3 320 352C320 336.1 314.2 321.6 304.7 310.4L381.3 163.1C387.4 151.3 382.8 136.8 371.1 130.7C359.3 124.6 344.8 129.2 338.7 140.9L262.1 288.3C260.1 288.1 258.1 287.1 255.1 287.1C220.7 287.1 191.1 316.7 191.1 352L192 352z"/></svg>
